lib/brands/icons/mychart.svg

<svg xmlns="http://www.w3.org/2000/svg" fill="none" aria-hidden="true" viewBox="0 0 48 48"><g id="mychart-Icon"><g id="Group"><path id="Vector" fill="#E23A4B" d="M7.10585 9.46413C6.70614 9.65066 6.46632 9.87716 6.27979 10.2635C6.01332 10.7565 6 11.0363 6 14.0074V17.2184L12.8349 17.1784C20.5625 17.1384 19.963 17.2184 21.2554 15.9926C21.6284 15.6329 22.2413 15.2065 22.601 15.0467L23.2539 14.7402L32.6203 14.7002L42 14.6603L41.9067 14.3005C41.7469 13.661 41.2539 12.8883 40.7876 12.5818L40.3346 12.2754H31.6477C24.1732 12.2754 22.8675 12.2487 22.3745 12.0755C21.6817 11.8224 21.2687 11.4626 21.0422 10.9031C20.9489 10.6632 20.7358 10.2769 20.5625 10.037C19.9363 9.19766 20.0696 9.21098 13.5677 9.21098C8.05181 9.21098 7.62546 9.23763 7.10585 9.46413Z"/><path id="Subtract" fill="#BF313F" d="M41.6942 13.7289L23.2539 13.8076L22.601 14.114C22.2413 14.2739 21.6284 14.7002 21.2554 15.06C20.9346 15.3642 20.7304 15.588 20.4864 15.7532C19.7476 16.2534 18.6445 16.2157 12.8349 16.2457L6 16.2857V17.2184L12.8349 17.1784C18.6445 17.1483 19.7476 17.1861 20.4864 16.6858C20.7304 16.5206 20.9346 16.2968 21.2554 15.9926C21.6284 15.6329 22.2413 15.2065 22.601 15.0466L23.2539 14.7402L42 14.6603L41.9067 14.3005C41.8607 14.1163 41.787 13.9209 41.6942 13.7289Z"/><path id="Vector_2" fill="#E23A4B" d="M23.1207 16.8586C22.9075 16.9519 22.3612 17.3783 21.9215 17.7913C20.5093 19.1103 20.8024 19.0703 12.8483 19.0703H6L6.02665 28.3168C6.06662 37.4434 6.06662 37.5766 6.34641 37.9497C6.49297 38.1495 6.82605 38.4293 7.0792 38.5492C7.50555 38.7757 8.58475 38.7891 23.9867 38.7891C39.3886 38.7891 40.4678 38.7757 40.8942 38.5492C41.1473 38.4293 41.4804 38.1495 41.6269 37.9497C41.9067 37.5766 41.9067 37.4567 41.9467 27.1177L41.9734 16.6721H32.7535C25.3856 16.6854 23.4404 16.7121 23.1207 16.8586ZM22.3346 23.2139C22.7876 23.3871 23.2805 23.7069 23.6003 24.0267L24.1199 24.5596L24.5463 24.0933C25.2124 23.4005 26.0385 23.0407 27.131 22.9608C29.436 22.8142 31.0081 24.1732 31.1547 26.4649C31.2213 27.6506 30.9016 28.5433 29.9556 29.809C29.1295 30.9415 24.4264 35.5914 24.1332 35.5914C23.8401 35.5914 20.1095 32.0074 18.8571 30.5152C17.3782 28.7432 17.1251 28.2102 17.1251 26.7313C17.1251 25.6388 17.1651 25.4656 17.5381 24.7994C17.9645 24.0267 18.8571 23.3072 19.6432 23.0807C20.3893 22.8542 21.5352 22.9208 22.3346 23.2139Z"/><path id="Subtract_2" fill="#BF313F" d="M22.3345 23.2139C22.7875 23.3871 23.2804 23.7069 23.6002 24.0267L24.1198 24.5596L24.5462 24.0933C25.2123 23.4005 26.0384 23.0407 27.1309 22.9608C29.4359 22.8142 31.008 24.1732 31.1546 26.4649C31.155 26.4716 31.1554 26.4784 31.1557 26.4851C31.166 26.3065 31.1653 26.123 31.1546 25.9319C31.008 23.6403 29.4359 22.2813 27.1309 22.4279C26.0384 22.5078 25.2123 22.8675 24.5462 23.5604L24.1198 24.0267L23.6002 23.4937C23.2804 23.174 22.7875 22.8542 22.3345 22.681C21.5351 22.3879 20.3892 22.3213 19.6431 22.5478C18.8571 22.7743 17.9644 23.4937 17.538 24.2665C17.165 24.9327 17.125 25.1059 17.125 26.1984C17.125 26.2688 17.1256 26.3371 17.1268 26.4034C17.1378 25.5949 17.2059 25.3926 17.538 24.7994C17.9644 24.0267 18.8571 23.3072 19.6431 23.0807C20.3892 22.8542 21.5351 22.9208 22.3345 23.2139Z"/><path id="Vector_3" fill="#BF313F" d="M6.16016 37.4567C6.16016 37.9658 6.82634 38.4293 7.07948 38.5492C7.50583 38.7757 8.58504 38.7891 23.987 38.7891C39.3889 38.7891 40.4681 38.7757 40.8944 38.5492C41.1476 38.4293 41.8004 38.0186 41.8004 37.4567V37.4567C41.4398 37.7744 40.9757 37.9497 40.4951 37.9497H31.7812H12.662L7.4846 37.9256C7.12356 37.9239 6.7697 37.8245 6.46058 37.638L6.16016 37.4567Z"/></g></g></svg>

<svg xmlns="http://www.w3.org/2000/svg" fill="none" aria-hidden="true" viewBox="0 0 48 48"><path fill="#E23A4B" d="M7.106 9.464c-.4.187-.64.413-.826.8-.267.493-.28.772-.28 3.743v3.211l6.835-.04c7.727-.04 7.128.04 8.42-1.185.373-.36.986-.787 1.346-.946l.653-.307 9.366-.04 9.38-.04-.093-.36c-.16-.639-.653-1.412-1.12-1.718l-.452-.307h-8.687c-7.475 0-8.78-.026-9.273-.2-.693-.253-1.106-.612-1.333-1.172a4.678 4.678 0 0 0-.48-.866c-.626-.84-.492-.826-6.994-.826-5.516 0-5.943.027-6.462.253Z"/><path fill="#BF313F" d="m41.694 13.729-18.44.079-.653.306c-.36.16-.973.586-1.346.946-.32.304-.525.528-.769.693-.738.5-1.841.463-7.651.493L6 16.286v.932l6.835-.04c5.81-.03 6.913.008 7.651-.492.244-.165.449-.39.77-.693.372-.36.985-.787 1.345-.946l.653-.307L42 14.66l-.093-.36a3.02 3.02 0 0 0-.213-.571Z"/><path fill="#E23A4B" d="M23.12 16.859c-.213.093-.759.52-1.198.932-1.413 1.32-1.12 1.28-9.074 1.28H6l.027 9.246c.04 9.126.04 9.26.32 9.633.146.2.479.48.732.6.427.226 1.506.24 16.908.24 15.402 0 16.48-.014 16.907-.24.253-.12.586-.4.733-.6.28-.373.28-.493.32-10.832l.026-10.446h-9.22c-7.367.013-9.313.04-9.632.187Zm-.785 6.355a3.89 3.89 0 0 1 1.265.813l.52.533.426-.467c.666-.692 1.492-1.052 2.585-1.132 2.305-.147 3.877 1.212 4.024 3.504.066 1.186-.253 2.078-1.2 3.344-.825 1.133-5.529 5.782-5.822 5.782-.293 0-4.023-3.584-5.276-5.076-1.479-1.772-1.732-2.305-1.732-3.784 0-1.092.04-1.265.413-1.932.427-.772 1.32-1.492 2.105-1.718.746-.227 1.892-.16 2.692.133Z"/><path fill="#BF313F" d="M22.334 23.214c.454.173.946.493 1.266.813l.52.533.426-.467c.666-.692 1.492-1.052 2.585-1.132 2.305-.147 3.877 1.212 4.024 3.504v.02c.011-.178.01-.362 0-.553-.147-2.292-1.72-3.65-4.024-3.504-1.093.08-1.919.44-2.585 1.132l-.426.467-.52-.533c-.32-.32-.813-.64-1.266-.813-.799-.293-1.945-.36-2.69-.133-.787.226-1.68.946-2.106 1.719-.373.666-.413.839-.413 1.931 0 .07 0 .14.002.205.01-.808.079-1.01.411-1.604.426-.772 1.32-1.492 2.105-1.718.746-.227 1.892-.16 2.691.133ZM6.16 37.457c0 .509.666.972.92 1.092.426.227 1.505.24 16.907.24 15.402 0 16.48-.013 16.907-.24.253-.12.906-.53.906-1.092-.36.317-.825.493-1.305.493H12.66l-5.177-.024a2 2 0 0 1-1.024-.288l-.3-.181Z"/></svg>
